packages/core/src/svgs/nav.svg

<svg width="24" height="24" viewBox="0 0 24 24" fill="none" xmlns="http://www.w3.org/2000/svg">
<g clip-path="url(#clip0_31_14602)">
<path d="M0 0H24V24H0V0Z" fill="white"/>
<path d="M0 0H24V24H0V0Z" fill="url(#paint0_linear_31_14602)"/>
<path fill-rule="evenodd" clip-rule="evenodd" d="M8.82855 6.34286C8.72061 6.19894 8.57013 6.09263 8.39841 6.03899C8.2267 5.98535 8.04245 5.9871 7.87179 6.04399C7.70112 6.10087 7.55268 6.21002 7.44749 6.35596C7.3423 6.5019 7.2857 6.67724 7.2857 6.85714V11.1429H6.42855C6.20123 11.1429 5.98321 11.2332 5.82246 11.3939C5.66172 11.5547 5.57141 11.7727 5.57141 12C5.57141 12.2273 5.66172 12.4453 5.82246 12.6061C5.98321 12.7668 6.20123 12.8571 6.42855 12.8571H7.2857V17.1429C7.2857 17.3702 7.376 17.5882 7.53675 17.7489C7.69749 17.9097 7.91551 18 8.14284 18C8.37017 18 8.58819 17.9097 8.74893 17.7489C8.90968 17.5882 8.99998 17.3702 8.99998 17.1429V12.8571H11.5714L15.1714 17.6571C15.2794 17.8011 15.4298 17.9074 15.6016 17.961C15.7733 18.0147 15.9575 18.0129 16.1282 17.956C16.2988 17.8991 16.4473 17.79 16.5525 17.644C16.6577 17.4981 16.7143 17.3228 16.7143 17.1429V12.8571H17.5714C17.7987 12.8571 18.0168 12.7668 18.1775 12.6061C18.3382 12.4453 18.4286 12.2273 18.4286 12C18.4286 11.7727 18.3382 11.5547 18.1775 11.3939C18.0168 11.2332 17.7987 11.1429 17.5714 11.1429H16.7143V6.85714C16.7143 6.62981 16.624 6.4118 16.4632 6.25105C16.3025 6.09031 16.0845 6 15.8571 6C15.6298 6 15.4118 6.09031 15.251 6.25105C15.0903 6.4118 15 6.62981 15 6.85714V11.1429H12.4286L8.82855 6.34286ZM13.7143 12.8571L15 14.5714V12.8571H13.7143ZM10.2857 11.1429L8.99998 9.42857V11.1429H10.2857Z" fill="white"/>
</g>
<defs>
<linearGradient id="paint0_linear_31_14602" x1="24" y1="0" x2="-0.214286" y2="24" gradientUnits="userSpaceOnUse">
<stop stop-color="#0B88F6"/>
<stop offset="0.456" stop-color="#7152D7"/>
<stop offset="1" stop-color="#DD1EBA"/>
</linearGradient>
<clipPath id="clip0_31_14602">
<rect width="24" height="24" fill="white"/>
</clipPath>
</defs>
</svg>

<svg xmlns="http://www.w3.org/2000/svg" width="24" height="24" fill="none" viewBox="0 0 24 24"><g clip-path="url(#a)"><path fill="#fff" d="M0 0h24v24H0z"/><path fill="url(#b)" d="M0 0h24v24H0z"/><path fill="#fff" fill-rule="evenodd" d="M8.829 6.343a.857.857 0 0 0-1.543.514v4.286h-.857a.857.857 0 0 0 0 1.714h.857v4.286a.857.857 0 1 0 1.714 0v-4.286h2.571l3.6 4.8a.857.857 0 0 0 1.543-.514v-4.286h.857a.857.857 0 1 0 0-1.714h-.857V6.857a.857.857 0 1 0-1.714 0v4.286h-2.571zm4.885 6.514L15 14.571v-1.714zm-3.428-1.714L9 9.429v1.714z" clip-rule="evenodd"/></g><defs><linearGradient id="b" x1="24" x2="-.214" y1="0" y2="24" gradientUnits="userSpaceOnUse"><stop stop-color="#0B88F6"/><stop offset=".456" stop-color="#7152D7"/><stop offset="1" stop-color="#DD1EBA"/></linearGradient><clipPath id="a"><path fill="#fff" d="M0 0h24v24H0z"/></clipPath></defs></svg>
